X: 17405
T: High, The
R: reel
M: 4/4
K: Amixolydian
|:a2fa eA (3AAA|cAeA cAAg|a2fa eA (3AAA|Bcdc BGGg|
a2fa eA (3AAA|Bdef g2fg|afge fdec|1 dfed cA A2:|2 dfed cA A||
|:B|(3cBA eA fAeA|cAef e2ed|(3cBA eA fAeA|Bdgd BGGB|
(3cBA eA fAeA|Bdef g2fg|afge fdec|1 dfed cA A:|2 dfed cA A2||

